X: 100346
M: 3/4
L: 1/8
Q: "Moderato"
K: C
P: Primo
uG2  |\
c4 (dc/d/) | e2(c2G2) | e4 (fe/f/) | g2(e2c2) |\
c'2(c'b)c'a | g2(ge)ge | f2(fd)fd | cBAGAB |
c2c2(e/d/c/d/) | e2c2G2 | e2e2(g/f/e/f/) | g2e2c2 |\
c'3(bag) | g3.f(fe) | (ed)dagB | (d2c2) :|
z2 |\
vG3(edc) | (cB) (uBA) (uA^G) | A3 (fed) | (dc) (ucB) (uBA) |\
f3 (agf) | (fe)(ee')d'c' | (c'b) (bag^f) |
(fe) (fedc) | cBAGAB | c2c2(e/d/c/d/) |
e2c2G2 | e2e2(g/f/e/f/) | g2e2c2 |\
c'3(bag) | g3f(fe) | (ed) da gB | (d2"^Fine."c2) :|


